com_jlsitemap/media/icons/sitemap.svg

<svg version="1.1" xmlns="http://www.w3.org/2000/svg" width="100" height="100" viewBox="0 0 100 100">
<title>sitemap</title>
<path d="M85 60h-30v20h5v20h-20v-20h5v-20h-30v20h5v20h-20v-20h5v-20c0-5.523 4.477-10 10-10v0h30v-20h-10v-30h30v30h-10v20h30c5.523 0 10 4.477 10 10v0 20h5v20h-20v-20h5v-20z"></path>
</svg>

<svg xmlns="http://www.w3.org/2000/svg" width="100" height="100" viewBox="0 0 100 100"><path d="M85 60H55v20h5v20H40V80h5V60H15v20h5v20H0V80h5V60c0-5.523 4.477-10 10-10h30V30H35V0h30v30H55v20h30c5.523 0 10 4.477 10 10v20h5v20H80V80h5V60z"/></svg>
